X: 34841
T: Roaring Barmaid, The
R: jig
M: 6/8
K: Dmajor
|:d3 BdA|d3 BdA|dAA fAA|eAA fge|
d3 BdA|d3 BdA|DEF ABd|ABd BAF:|
|:ABd f3|fef ABd|f3 fed|edB ABd|
f3 fef|edd fdd|edd Bcd|Bcd BAF:|

